X:203
T:Tripping at the Truck Stop
M:2/4
L:1/8
K:D
"D"d>A FA|"Bm"B>A FA|"D"dA FD|"G"GF "A"E2|
"D"d>A FA|"G"B>c de|"D"(3(fga) "G"gf|"A"ec "D"d2:|
"D"fa fa|"Em"b>a ge|"D"fa af|"G"gf "A"e2|
"D"fa fa|"Em"b>a ge|"D"(3(fga) "G"gf|"A"ec "D"d2:||
